X:52
T: My Last Days On Earth
C: Bill Monroe (Dm tuning: AA  DD  AC  DF)
S: MandoZine TablEdit Archives
Z: TablEdited by Dan Freeman for MandoZine
L: 1/8
Q: 200
M: 3/4
K: Dm
 "Dm tuning: AA  DD  AC  DF"[f3d3][c3A3] | D2 A,2 A,2 | D3[c3A3] | [f3d3]A, A,C |
 "Part A""Dm"[D/4_D/4][=D/4D/4][D/4D/4][D/4D/4][D/4D/4][D/4D/4][D/4D/4][D/4D/4] [DD][DD] (3DCA, |
 "F"E/4F/4F/4F/4F/4F/4F/4F/4 FF F/4F/4G/4G/4F/4F/4F/4F/4 | "C"E/4E/4E/4E/4E/4E/4E/4E/4 EF (3E/F/E/_D |
 "Dm"D/4D/4D/4D/4D/4D/4D/4D/4 DD A,C | [D/_D/][=D/4D/4][D/4D/4][D/4D/4][D/4D/4][D/4D/4][D/4D/4] [DD][DD] (3DCA, |
 "G"[d/4=B/4G/4][d/4=B/4G/4][d/4=B/4G/4][d/4=B/4G/4][d/4=B/4G/4][d/4=B/4G/4][d/4=B/4G/4][d/4=B/4G/4] [d/4=B/4G/4][d/4=B/4G/4][d/4=B/4G/4][d/4=B/4G/4][d/4=B/4G/4][d/4=B/4G/4][d/4=B/4G/4][d/4=B/4G/4] [d=BG][d=BG] |
 "A"[e/4_d/4A/4][e/4_d/4A/4][e/4_d/4A/4][e/4_d/4A/4][e/4_d/4A/4][e/4_d/4A/4][e/4_d/4A/4][e/4_d/4A/4] [e/4_d/4A/4][e/4_d/4A/4][e/4_d/4A/4][e/4_d/4A/4][e/4_d/4A/4][e/4_d/4A/4][e/4_d/4A/4][e/4_d/4A/4] [e_dA][e_dA] |
 [e/4_d/4A/4][e/4_d/4A/4][e/4_d/4A/4][e/4_d/4A/4][e/4_d/4A/4][e/4_d/4A/4][e/4_d/4A/4][e/4_d/4A/4] [e_dA][e_dA] A,C |
 "Dm"[D/4_D/4][=D/4D/4][D/4D/4][D/4D/4][D/4D/4][D/4D/4][D/4D/4][D/4D/4] [DD][DD] (3DCA, |
 "F"E/4F/4F/4F/4F/4F/4F/4F/4 FF F/4F/4G/4G/4F/4F/4F/4F/4 | "C"E/4E/4E/4E/4E/4E/4E/4E/4 EF (3E/F/E/D |
 "Dm"D/4D/4D/4D/4D/4D/4D/4D/4 DD A,C | D/4D/4D/4D/4D/4D/4D/4D/4 DD F/4F/4E/4E/4D/4D/4D/4D/4 |
 "A"E/4E/4E/4E/4E/4E/4E/4E/4 EE F/4F/4E/4E/4D/4D/4D/4D/4 | "Dm"[D/_D/][=D/4D/4][D/4D/4][D/4D/4][D/4D/4][D/4D/4][D/4D/4] [D/4D/4][D/4D/4][D/4D/4][D/4D/4][D/4D/4][D/4D/4][D/4D/4][D/4D/4] [DD][DD] |
 [D/4D/4][D/4D/4][D/4D/4][D/4D/4][D/4D/4][D/4D/4][D/4D/4][D/4D/4] [D/4D/4][D/4D/4][D/4D/4][D/4D/4][D/4D/4][D/4D/4][D/4D/4][D/4D/4] [DD][DD] |
